X: 31448
T: Paddy Taylor's
R: jig
M: 6/8
K: Fmajor
|:A3 G3|FAc f2c|fag f2c|dcB BcB|
A3 G3|FAc f2b|agf cde|fag f3:|
|:a2a b2b|afd cAc|dBG GFG|cAF FEF|
a2a b2b|afd cAc|cde fdc|fag f3:|

